img/svg/catalog_siz.svg

<svg width="66" height="60" viewBox="0 0 66 60" fill="none" xmlns="http://www.w3.org/2000/svg">
<path fill-rule="evenodd" clip-rule="evenodd" d="M59.6902 30.7014L6.27712 30.566L6.38985 33.7649L59.6902 33.5896V30.7014ZM34.4315 4.63379C34.4129 6.43321 34.4363 6.17134 34.4143 7.97077C34.4081 8.47596 34.3002 8.98046 34.2336 9.52688C33.6912 9.57706 33.25 9.6451 32.808 9.64923C32.4444 9.65335 32.0801 9.58049 31.5482 9.52482C31.364 8.0883 31.4822 6.67309 31.4423 5.2675C31.4011 3.79043 31.5571 5.04962 31.3124 3.53681C30.3165 3.2337 29.4167 3.31961 28.5377 3.34711C27.5967 3.37666 26.5987 3.08592 25.6241 3.7217C25.6028 4.45783 25.565 4.51075 25.5636 5.25169C25.5567 9.07531 25.5656 10.8376 25.5546 14.6612C25.5533 15.24 25.479 15.818 25.4357 16.4345C24.435 16.6854 23.5868 16.7974 22.7002 16.3074C22.3812 14.0578 22.793 11.8061 22.4287 9.43409C21.9042 9.63892 21.4719 9.7372 21.1172 9.95852C15.1114 13.7045 11.5558 19.1069 10.3337 26.0592C10.2616 26.4689 10.3722 26.9094 10.3963 27.3081C12.5002 27.6572 36.3546 27.7823 53.4114 27.5459C53.997 27.5377 54.5819 27.46 55.1421 27.4167C55.927 21.3572 48.7926 10.7483 43.1764 9.59218C42.8204 11.8617 43.364 14.1904 42.8575 16.4751C41.8705 16.6428 41.0037 16.8662 40.0944 16.163V13.9725C40.0937 10.1489 40.1013 8.3866 40.0848 4.56299C40.082 3.99045 39.9645 4.10592 39.8848 3.39178C38.572 3.37047 37.3877 3.33817 36.2034 3.34092C35.6982 3.34161 35.1931 3.41515 34.5841 3.46395C34.5243 4.16297 34.4384 4.05437 34.4315 4.63379ZM62.4518 27.7487L63.023 33.7216C63.023 33.7216 64.641 33.8528 65.4933 33.9223C66.0053 34.7876 65.8658 35.6275 65.6362 36.4846C65.351 36.5671 65.1427 36.6805 64.9338 36.6805C43.6678 36.6936 22.4026 36.6984 1.13659 36.6956C0.849974 36.6956 0.563358 36.6028 0.188763 36.5375C-0.0861685 35.7196 -0.0139989 34.9368 0.111782 34.0089C1.03349 33.8975 2.80749 33.6838 2.80749 33.6838L3.0886 27.9095C3.0886 27.9095 5.74788 27.871 7.05931 27.2957C7.19746 26.6565 7.37204 25.9431 7.50607 25.2214C9.03744 16.97 13.4961 10.8273 20.797 6.72877C21.3173 6.43596 21.8438 6.15347 22.5077 5.78987C22.5311 4.57743 22.6383 6.05931 22.5648 4.80287C22.3977 1.95801 23.8095 0.239691 27.0523 0.337291C30.9426 0.454825 34.8391 0.364784 38.7328 0.366159C39.1074 0.366159 39.4847 0.349663 39.8552 0.390216C41.8175 0.608099 42.9503 1.79855 43.0506 3.79387C43.0994 4.76575 43.052 3.67977 43.0685 4.65372C43.0788 5.2462 43.1269 5.15066 43.1558 5.69846C52.0244 10.2678 57.0611 17.0531 58.6351 27.3129C59.8139 27.8634 62.4518 27.7487 62.4518 27.7487ZM41.377 20.9983C41.6299 22.1104 41.6938 22.905 41.3041 23.8294C39.9102 24.024 38.4984 23.8989 37.097 23.9209C35.6756 23.9429 34.2528 23.9257 32.8307 23.9257C31.4093 23.9257 29.9859 23.96 28.5651 23.916C27.163 23.8741 25.7395 24.1229 24.3656 23.7257C24.0398 22.8548 24.0927 22.0534 24.3388 21.1007C26.1471 20.7756 28.0105 20.9873 29.8566 20.9509C31.8018 20.9117 33.7483 20.9324 35.6941 20.9447C37.5499 20.9557 39.4091 20.8911 41.377 20.9983ZM53.671 51.9402C53.671 52.8344 53.0325 53.5932 52.1493 53.7396L39.3526 56.6992C38.6639 56.8223 38.0088 56.3906 37.8322 55.7136L36.5723 50.9016C36.1022 49.1056 34.4787 47.8513 32.6216 47.8513C30.7637 47.8513 29.1409 49.1056 28.6708 50.9016L27.4116 55.7136C27.235 56.3906 26.5765 56.8223 25.8899 56.6992L13.0938 53.7396C12.2127 53.5918 11.5721 52.8344 11.5721 51.9402V43.5994H53.671V51.9402ZM56.4135 41.3436C56.4135 41.3436 56.1062 41.022 55.9069 40.8618H10.5624L9.53761 40.8611C9.35134 41.0391 9.15683 41.2089 8.95613 41.3725C8.94376 41.6254 8.91626 41.8763 8.89014 42.1286V43.0558C8.88877 43.3499 8.85853 43.6359 8.83241 43.9232V51.9402C8.83241 53.8736 10.0304 55.5438 11.7769 56.2044L14.7001 56.7893L25.4362 59.4011C27.5463 59.7537 29.5245 58.4657 30.0654 56.4071L31.3239 51.5945C31.4772 51.0047 32.0119 50.5923 32.6222 50.5923C33.234 50.5923 33.7673 51.0033 33.9213 51.5945L35.1819 56.4058C35.6595 58.2382 37.2844 59.4589 39.1154 59.4589C39.3443 59.4589 39.576 59.4396 39.809 59.4011L51.0324 56.7075L53.9858 55.9659C55.4464 55.1947 56.4135 53.6771 56.4135 51.9416V44.0991V41.3436Z" fill="#A5FF14"/>
</svg>

<svg width="66" height="60" fill="none" xmlns="http://www.w3.org/2000/svg"><path fill-rule="evenodd" clip-rule="evenodd" d="M59.69 30.701l-53.413-.135.113 3.199 53.3-.175V30.7zM34.432 4.634c-.02 1.8.004 1.537-.018 3.337-.006.505-.114 1.01-.18 1.556-.543.05-.984.118-1.426.122-.364.004-.728-.069-1.26-.124-.184-1.437-.066-2.852-.106-4.258-.04-1.477.115-.217-.13-1.73-.995-.303-1.895-.217-2.774-.19-.941.03-1.94-.261-2.914.375-.021.736-.059.789-.06 1.53-.007 3.823.002 5.586-.01 9.41 0 .578-.075 1.156-.118 1.772-1.001.251-1.85.363-2.736-.127-.319-2.25.093-4.5-.271-6.873-.525.205-.957.303-1.312.525-6.006 3.745-9.561 9.148-10.783 16.1-.072.41.038.85.062 1.25 2.104.348 25.959.473 43.015.237.586-.008 1.17-.086 1.731-.13.785-6.059-6.35-16.668-11.966-17.824-.356 2.27.188 4.598-.319 6.883-.986.168-1.853.391-2.763-.312v-2.19c0-3.824.007-5.586-.01-9.41-.002-.573-.12-.457-.2-1.171-1.312-.022-2.496-.054-3.68-.051-.506 0-1.01.074-1.62.123-.06.699-.146.59-.153 1.17zm28.02 23.115l.571 5.973s1.618.13 2.47.2c.512.866.373 1.706.143 2.563-.285.082-.493.196-.702.196-21.266.013-42.531.017-63.797.015-.287 0-.574-.093-.948-.158-.275-.818-.203-1.601-.077-2.53l2.695-.324.282-5.774s2.659-.039 3.97-.614c.138-.64.313-1.353.447-2.075 1.531-8.251 5.99-14.394 13.291-18.492.52-.293 1.047-.576 1.71-.94.024-1.212.131.27.058-.986C22.398 1.958 23.809.24 27.052.337c3.89.118 7.787.028 11.68.03.375 0 .753-.017 1.123.023 1.963.218 3.095 1.409 3.196 3.404.048.972.001-.114.017.86.01.592.059.497.088 1.044 8.868 4.57 13.905 11.355 15.48 21.615 1.178.55 3.816.436 3.816.436zm-21.075-6.75c.253 1.111.317 1.906-.073 2.83-1.394.195-2.806.07-4.207.092-1.421.022-2.844.005-4.266.005-1.422 0-2.845.034-4.266-.01-1.402-.042-2.826.207-4.2-.19-.325-.871-.272-1.673-.026-2.625 1.808-.325 3.672-.114 5.518-.15 1.945-.04 3.891-.019 5.837-.006 1.856.01 3.715-.054 5.683.053zM53.671 51.94c0 .894-.639 1.653-1.522 1.8L39.353 56.7a1.33 1.33 0 01-1.52-.986l-1.26-4.812a4.085 4.085 0 00-7.902 0l-1.26 4.812a1.333 1.333 0 01-1.521.985l-12.796-2.96a1.82 1.82 0 01-1.522-1.799V43.6h42.099v8.34zm2.742-10.596s-.307-.322-.506-.482H9.538a9.83 9.83 0 01-.582.51c-.012.253-.04.504-.066.757v.927c-.001.294-.031.58-.058.867v8.017a4.548 4.548 0 002.945 4.264l2.923.585 10.736 2.612a4.061 4.061 0 004.63-2.994l1.258-4.813a1.342 1.342 0 012.597 0l1.26 4.812a4.056 4.056 0 003.934 3.053c.23 0 .461-.02.694-.058l11.223-2.694 2.954-.741a4.538 4.538 0 002.428-4.024V41.344z" fill="#A5FF14"/></svg>
